communes/304.svg

<?xml version="1.0" encoding="UTF-8" standalone="no"?>
<svg
   xmlns:dc="http://purl.org/dc/elements/1.1/"
   xmlns:cc="http://web.resource.org/cc/"
   xmlns:rdf="http://www.w3.org/1999/02/22-rdf-syntax-ns#"
   xmlns:svg="http://www.w3.org/2000/svg"
   xmlns="http://www.w3.org/2000/svg"
   xmlns:xlink="http://www.w3.org/1999/xlink"
   xmlns:sodipodi="http://sodipodi.sourceforge.net/DTD/sodipodi-0.dtd"
   xmlns:inkscape="http://www.inkscape.org/namespaces/inkscape"
   height="763"
   width="603"
   version="1.0"
   id="svg20"
   sodipodi:version="0.32"
   inkscape:version="0.44.1"
   sodipodi:docname="Kallnach-coat of arms.svg"
   sodipodi:docbase="F:\Mis Documentos\Mis imágenes\Encyclopédie\Escudos de Suiza">
  <metadata
     id="metadata31">
    <rdf:RDF>
      <cc:Work
         rdf:about="">
        <dc:format>image/svg+xml</dc:format>
        <dc:type
           rdf:resource="http://purl.org/dc/dcmitype/StillImage" />
        <dc:date>07-AUG-2006</dc:date>
        <dc:creator>
          <cc:Agent>
            <dc:title>Jérôme BLUM (wagner51)</dc:title>
          </cc:Agent>
        </dc:creator>
        <cc:license
           rdf:resource="http://creativecommons.org/licenses/GPL/2.0/" />
        <dc:coverage />
        <dc:description>Gabarit pour le Projet:Blasons de WIkipédia</dc:description>
        <dc:subject>
          <rdf:Bag>
            <rdf:li>blason suisse modèle gabarit projet blasons</rdf:li>
          </rdf:Bag>
        </dc:subject>
        <dc:language>fr</dc:language>
        <dc:title>Gabrit d'un blason suisse</dc:title>
      </cc:Work>
      <cc:License
         rdf:about="http://creativecommons.org/licenses/GPL/2.0/">
        <cc:permits
           rdf:resource="http://web.resource.org/cc/Reproduction" />
        <cc:permits
           rdf:resource="http://web.resource.org/cc/Distribution" />
        <cc:requires
           rdf:resource="http://web.resource.org/cc/Notice" />
        <cc:permits
           rdf:resource="http://web.resource.org/cc/DerivativeWorks" />
        <cc:requires
           rdf:resource="http://web.resource.org/cc/ShareAlike" />
        <cc:requires
           rdf:resource="http://web.resource.org/cc/SourceCode" />
      </cc:License>
    </rdf:RDF>
  </metadata>
  <defs
     id="defs29">
    <linearGradient
       id="linearGradient2893">
      <stop
         style="stop-color:#ffffff;stop-opacity:0.3137255;"
         offset="0"
         id="stop2895" />
      <stop
         id="stop2897"
         offset="0.19"
         style="stop-color:#ffffff;stop-opacity:0.25098041;" />
      <stop
         style="stop-color:#6b6b6b;stop-opacity:0.1254902;"
         offset="0.60000002"
         id="stop2901" />
      <stop
         style="stop-color:#000000;stop-opacity:0.1254902;"
         offset="1"
         id="stop2899" />
    </linearGradient>
    <linearGradient
       id="linearGradient2955">
      <stop
         style="stop-color:white;stop-opacity:0;"
         offset="0"
         id="stop2965" />
      <stop
         style="stop-color:black;stop-opacity:0.64583331;"
         offset="1"
         id="stop2959" />
    </linearGradient>
    <radialGradient
       inkscape:collect="always"
       xlink:href="#linearGradient2893"
       id="radialGradient3236"
       gradientUnits="userSpaceOnUse"
       gradientTransform="matrix(1.215027,1.531577e-24,1.464684e-23,1.266667,-839.1924,-490.4894)"
       cx="858.04236"
       cy="579.93323"
       fx="858.04236"
       fy="579.93323"
       r="300" />
  </defs>
  <sodipodi:namedview
     inkscape:window-height="682"
     inkscape:window-width="1024"
     inkscape:pageshadow="2"
     inkscape:pageopacity="0.0"
     guidetolerance="10.0"
     gridtolerance="10.0"
     objecttolerance="10.0"
     borderopacity="1.0"
     bordercolor="#666666"
     pagecolor="#ffffff"
     id="base"
     inkscape:zoom="0.39514252"
     inkscape:cx="499.60094"
     inkscape:cy="462.79842"
     inkscape:window-x="-4"
     inkscape:window-y="-4"
     inkscape:current-layer="layer2"
     showgrid="true"
     showguides="true"
     inkscape:guide-bbox="true" />
  <desc
     id="desc22">Coat of Arms of Canton of Freiburg (Fribourg)</desc>
  <g
     inkscape:groupmode="layer"
     id="layer1"
     inkscape:label="Fond écu"
     sodipodi:insensitive="true">
    <path
       id="path1899"
       d="M 1.5,1.49998 L 1.5,460.3679 C 1.5,626.6785 135.81456,761.5 301.49999,761.5 C 467.18543,761.5 601.5,626.6785 601.5,460.3679 L 601.5,1.49998 L 1.5,1.49998 z "
       style="fill:#2b5df2;fill-opacity:1" />
  </g>
  <g
     inkscape:groupmode="layer"
     id="layer2"
     inkscape:label="Meubles"
     sodipodi:insensitive="true">
    <g
       id="g26055">
      <path
         sodipodi:nodetypes="cccccccszscccccccccccccccc"
         id="path20734"
         d="M 355.06827,662.9449 C 406.52159,654.44624 403.50749,614.52407 401.13949,574.97462 C 400.45029,437.85082 340.27619,598.1627 346.30942,186.57739 C 300.81641,206.0596 319.91331,291.81142 313.96547,349.7778 C 316.53029,400.28898 308.19605,496.92541 351.88325,526.51462 C 308.22118,497.04438 316.17414,400.08025 313.96547,349.7778 C 319.83509,292.05851 300.52367,205.97311 346.30942,186.57739 C 380.19338,163.87944 378.95885,138.37411 379.14694,115.8221 C 379.76347,41.90301 380.82688,46.610975 308.08895,45.36955 C 235.35102,44.128125 224.2549,41.745236 224.70537,115.5194 C 225.02459,167.80053 237.50216,177.58326 259.93165,191.35496 C 303.18008,213.27943 290.27146,279.81424 289.88684,352.16657 C 289.24563,412.28678 302.88579,476.57452 261.52416,526.51462 C 302.7405,476.75706 289.69357,412.25867 289.88684,352.16657 C 290.46628,279.54659 302.88094,213.01451 259.93165,191.35496 C 263.46037,603.58659 204.67411,435.52595 203.50907,572.88855 C 207.78945,610.48666 194.03492,659.38685 250.37655,662.9449 L 355.06827,662.9449 L 250.37655,662.9449 L 228.38399,691.8011 L 374.67206,691.8011 L 228.38399,691.8011 L 251.96906,720.95999 L 351.88325,719.36749 L 374.67206,691.8011 L 355.06827,662.9449 z "
         style="fill:white;fill-opacity:1;fill-rule:evenodd;stroke:black;stroke-width:4.08001041px;stroke-linecap:butt;stroke-linejoin:miter;stroke-opacity:1" />
      <rect
         rx="13.765031"
         ry="14.003864"
         y="91.753647"
         x="276.9592"
         height="40.279472"
         width="52.519806"
         id="rect21621"
         style="opacity:1;fill:#2b5df2;fill-opacity:1;fill-rule:nonzero;stroke:black;stroke-width:4.60052013;stroke-miterlimit:4;stroke-dasharray:none;stroke-opacity:1" />
      <path
         transform="matrix(4.504788,-0.129959,0.115452,4.740074,-2804.183,-2564.719)"
         d="M 736.5441,640.06093 L 718.88589,637.69366 L 711.2935,653.8111 L 704.51452,637.33501 L 686.76021,638.81853 L 697.63943,624.70971 L 687.47751,610.07579 L 705.13572,612.44306 L 712.7281,596.32561 L 719.50709,612.80171 L 737.2614,611.31819 L 726.38218,625.42701 L 736.5441,640.06093 z "
         inkscape:randomized="0"
         inkscape:rounded="0"
         inkscape:flatsided="false"
         sodipodi:arg2="1.0721482"
         sodipodi:arg1="0.5485494"
         sodipodi:r2="14.375848"
         sodipodi:r1="28.751694"
         sodipodi:cy="625.06836"
         sodipodi:cx="712.0108"
         sodipodi:sides="6"
         id="path22508"
         style="opacity:1;fill:#fcef3c;fill-opacity:1;fill-rule:nonzero;stroke:#200000;stroke-width:1;stroke-miterlimit:4;stroke-dasharray:none;stroke-opacity:1"
         sodipodi:type="star" />
      <path
         sodipodi:type="star"
         style="opacity:1;fill:#fcef3c;fill-opacity:1;fill-rule:nonzero;stroke:#200000;stroke-width:1;stroke-miterlimit:4;stroke-dasharray:none;stroke-opacity:1"
         id="path22510"
         sodipodi:sides="6"
         sodipodi:cx="712.0108"
         sodipodi:cy="625.06836"
         sodipodi:r1="28.751694"
         sodipodi:r2="14.375848"
         sodipodi:arg1="0.5485494"
         sodipodi:arg2="1.0721482"
         inkscape:flatsided="false"
         inkscape:rounded="0"
         inkscape:randomized="0"
         d="M 736.5441,640.06093 L 718.88589,637.69366 L 711.2935,653.8111 L 704.51452,637.33501 L 686.76021,638.81853 L 697.63943,624.70971 L 687.47751,610.07579 L 705.13572,612.44306 L 712.7281,596.32561 L 719.50709,612.80171 L 737.2614,611.31819 L 726.38218,625.42701 L 736.5441,640.06093 z "
         transform="matrix(4.504788,-0.129959,0.115452,4.740074,-3155.064,-2564.719)" />
    </g>
  </g>
  <g
     inkscape:groupmode="layer"
     id="layer3"
     inkscape:label="Reflet final"
     style="display:inline"
     sodipodi:insensitive="true">
    <path
       style="fill:url(#radialGradient3236);fill-opacity:1"
       d="M 1.5,1.5 L 1.5,460.3679 C 1.5,626.67854 135.81454,761.5 301.49993,761.5 C 467.1854,761.5 601.5,626.67854 601.5,460.3679 L 601.5,1.5 L 1.5,1.5 z "
       id="path2346" />
  </g>
  <g
     inkscape:groupmode="layer"
     id="layer4"
     inkscape:label="Contour final"
     style="display:inline"
     sodipodi:insensitive="true">
    <path
       style="fill:none;fill-opacity:1;stroke:#000000;stroke-width:3;stroke-miterlimit:4;stroke-dasharray:none;stroke-opacity:1"
       d="M 1.5,1.5 L 1.5,460.36794 C 1.5,626.67854 135.81454,761.5 301.49993,761.5 C 467.1854,761.5 601.5,626.67854 601.5,460.36794 L 601.5,1.5 L 1.5,1.5 z "
       id="path3239" />
  </g>
</svg>

<?xml version="1.0" encoding="UTF-8"?>
<svg version="1.0" viewBox="0 0 603 763" xmlns="http://www.w3.org/2000/svg" xmlns:cc="http://web.resource.org/cc/" xmlns:dc="http://purl.org/dc/elements/1.1/" xmlns:rdf="http://www.w3.org/1999/02/22-rdf-syntax-ns#" xmlns:xlink="http://www.w3.org/1999/xlink">
<metadata>
<rdf:RDF>
<cc:Work rdf:about="">
<dc:format>image/svg+xml</dc:format>
<dc:type rdf:resource="http://purl.org/dc/dcmitype/StillImage"/>
<dc:date>07-AUG-2006</dc:date>
<dc:creator>
<cc:Agent>
<dc:title>Jérôme BLUM (wagner51)</dc:title>
</cc:Agent>
</dc:creator>
<cc:license rdf:resource="http://creativecommons.org/licenses/GPL/2.0/"/>
<dc:coverage/>
<dc:description>Gabarit pour le Projet:Blasons de WIkipédia</dc:description>
<dc:subject>
<rdf:Bag>
<rdf:li>blason suisse modèle gabarit projet blasons</rdf:li>
</rdf:Bag>
</dc:subject>
<dc:language>fr</dc:language>
<dc:title>Gabrit d'un blason suisse</dc:title>
</cc:Work>
<cc:License rdf:about="http://creativecommons.org/licenses/GPL/2.0/">
<cc:permits rdf:resource="http://web.resource.org/cc/Reproduction"/>
<cc:permits rdf:resource="http://web.resource.org/cc/Distribution"/>
<cc:requires rdf:resource="http://web.resource.org/cc/Notice"/>
<cc:permits rdf:resource="http://web.resource.org/cc/DerivativeWorks"/>
<cc:requires rdf:resource="http://web.resource.org/cc/ShareAlike"/>
<cc:requires rdf:resource="http://web.resource.org/cc/SourceCode"/>
</cc:License>
</rdf:RDF>
</metadata>
<defs>
<radialGradient id="a" cx="858.04" cy="579.93" r="300" gradientTransform="matrix(1.215 1.5316e-24 1.4647e-23 1.2667 -839.19 -490.49)" gradientUnits="userSpaceOnUse">
<stop stop-color="#fff" stop-opacity=".31373" offset="0"/>
<stop stop-color="#fff" stop-opacity=".25098" offset=".19"/>
<stop stop-color="#6b6b6b" stop-opacity=".12549" offset=".6"/>
<stop stop-opacity=".12549" offset="1"/>
</radialGradient>
</defs>
<desc>Coat of Arms of Canton of Freiburg (Fribourg)</desc>
<path d="m1.5 1.5v458.87c0 166.31 134.31 301.13 300 301.13 165.69 0 300-134.82 300-301.13v-458.87h-600z" fill="#2b5df2"/>
<g>
<path d="m355.07 662.94c51.453-8.4987 48.439-48.421 46.071-87.97-0.6892-137.12-60.863 23.188-54.83-388.4-45.493 19.482-26.396 105.23-32.344 163.2 2.5648 50.511-5.7694 147.15 37.918 176.74-43.662-29.47-35.709-126.43-37.918-176.74 5.8696-57.719-13.442-143.8 32.344-163.2 33.884-22.698 32.649-48.203 32.838-70.755 0.61653-73.919 1.6799-69.211-71.058-70.453s-83.834-3.6243-83.384 70.15c0.31922 52.281 12.797 62.064 35.226 75.836 43.248 21.924 30.34 88.459 29.955 160.81-0.64121 60.12 12.999 124.41-28.363 174.35 41.216-49.758 28.169-114.26 28.363-174.35 0.57944-72.62 12.994-139.15-29.955-160.81 3.5287 412.23-55.258 244.17-56.423 381.53 4.2804 37.598-9.4742 86.498 46.867 90.056h104.69-104.69l-21.993 28.856h146.29-146.29l23.585 29.159 99.914-1.5925 22.789-27.566-19.604-28.856z" fill="#fff" fill-rule="evenodd" stroke="#000" stroke-width="4.08px"/>
<rect x="276.96" y="91.754" width="52.52" height="40.279" rx="13.765" ry="14.004" fill="#2b5df2" stroke="#000" stroke-width="4.6005"/>
<path transform="matrix(4.5048 -.12996 .11545 4.7401 -2804.2 -2564.7)" d="m736.54 640.06-17.658-2.3673-7.5924 16.117-6.779-16.476-17.754 1.4835 10.879-14.109-10.162-14.634 17.658 2.3673 7.5924-16.117 6.779 16.476 17.754-1.4835-10.879 14.109 10.162 14.634z" fill="#fcef3c" stroke="#200000"/>
<path transform="matrix(4.5048 -.12996 .11545 4.7401 -3155.1 -2564.7)" d="m736.54 640.06-17.658-2.3673-7.5924 16.117-6.779-16.476-17.754 1.4835 10.879-14.109-10.162-14.634 17.658 2.3673 7.5924-16.117 6.779 16.476 17.754-1.4835-10.879 14.109 10.162 14.634z" fill="#fcef3c" stroke="#200000"/>
</g>
<g>
<path d="m1.5 1.5v458.87c0 166.31 134.31 301.13 300 301.13 165.69 0 300-134.82 300-301.13v-458.87h-600z" fill="url(#a)"/>
<path d="m1.5 1.5v458.87c0 166.31 134.31 301.13 300 301.13 165.69 0 300-134.82 300-301.13v-458.87h-600z" fill="none" stroke="#000" stroke-width="3"/>
</g>
</svg>
